!!!!SEGMENT: pl-sa--549-a-ix-29--015_anonim--galop.krn
!!!cenid: 18xx:579
!!!COM: Anonim
!!!COM-rismID: pe30004985
!!!CDT:
!!!CNT:
!!!OTL: Galop
!!!PDT:
!!!AGN: Secular; Galop
!!!SMS-siglum: PL-SA
!!!SMS-shelfmark: 549/A IX 29
!!!SMS-shelfwork: 015 W
!!!SMS-variant:
!!!SMS-altvar:
!!!NIFC-rismSourceID: 1001068422
!!!NIFC-rismChildID: 1001068422
!!!NIFC-islandoraID: none
!!!URL-pdf-islandora:
!!!URL-scan: https://bc.bdsandomierz.pl/dlibra/publication/1441/edition/1409/content @EN{Scan in the Sandomierz Diocese Digital Library} @PL{Skany w portalu Cyfrowa Biblioteka Diecezjalna w Sandomierzu}
!!!IIIF:
!!!ONB-nifc: Str. 12, s. 4-5
!!!AIN: 2 empty
!!!key:
**kern	**kern
*part2	*part1
*staff2	*staff1
*Iempty	*Iempty
*	*I"pf
*	*ICklav
*clefF4	*clefG2
*k[f#c#]	*k[f#c#]
*D:	*D:
*M2/4	*M2/4
*>[A,B,A,B,C,C,B]	*
=1	=1
*>A	*
!LO:N:vis=8.	!LO:TX:b:t=Galopad
4F#/L 4D/	8dd\L
.	16a\L
.	16dd\JJ
!LO:N:vis=8.	!
4AA/J	8ff#\L
.	16dd\L
.	16ff#\JJ
=2	=2
*rep	*
!LO:N:vis=8.	!
4F#/L 4D/	8aa\L
.	16ff#\L
.	16aa\JJ
!LO:N:vis=8.	!
4AA/J	8ddd\L
.	8ff#\J
*Xrep	*
=3	=3
!LO:N:vis=8.	!
4G/L 4C#/	8.bb\L
.	16aa\K
!LO:N:vis=8.	!
4AA/J	8gg\
.	8ee\J
=4	=4
!LO:N:vis=8.	!
!LO:TX:a:t=P:problem=mixed beam beam	!
4F#\L 4D\	8.bb\L
.	16aa\K
!LO:TX:a:t=P:problem=znak segno na kresce	!
!LO:N:vis=8.	!
4AA/J	8ff#\
!	!LO:TX:a:t=[segno]
!	!LO:TX:a:t=P:problem=znak segno na kresce
.	8dd\J
!!LO:LB:g=original
=5||	=5||
*>B	*
*rep	*
!LO:N:vis=8.	!
!LO:TX:a:t=P:problem=mixed beam beam	!
4F#\L 4D\	8dd\L
.	16a\L
.	16dd\JJ
!!LO:N:vis=8.	!	!
4AA/J	8ff#\L
.	16dd\L
.	16ff#\JJ
*Xrep	*
=6	=6
*rep	*
!LO:N:vis=8.	!
!LO:TX:a:t=P:problem=mixed beam beam	!
4F#\L 4D\	8aa\L
.	16ff#\L
.	16aa\JJ
!!LO:N:vis=8.	!	!
4AA/J	8ddd\L
.	8ff#\J
*Xrep	*
=7	=7
!LO:N:vis=8.	!
4G/L 4C#/	8.bb\L
.	16aa\K
!LO:N:vis=8.	!
4AA/J	8gg\
.	8cc#\J
=8	=8
8D/L	8ee/L 8g/
8AA/J	8dd/J 8f#/
4DD/	4dd/ 4f#/
=9:|!|:	=9:|!|:
*>C	*
8AA\L	8aa\L 8ff#\
8G\ 8E\	8gg\ 8ee\
8G\ 8E\	8gg\ 8ee\
8G\J 8E\	8ee\J 8cc#\
=10	=10
8AA\L	8aa\L 8ff#\
8F#\ 8D\	8ff#\ 8dd\
8F#\ 8D\	8ff#\ 8dd\
8F#\J 8D\	8dd\J 8a\
=11	=11
8AA\L	8aa\L 8ff#\
8G\ 8E\ 8C#\	8gg\ 8ee\
8G\ 8E\ 8C#\	8gg\ 8ee\
8G\J 8E\ 8C#\	8ee\J 8cc#\
=12	=12
8AA\L	8aa\L 8ff#\
8F#\ 8D\	8ff#\ 8dd\
8F#\ 8D\	8ff#\ 8dd\
!LO:TX:a:t=P:problem=znak segno na kresce	!LO:TX:a:t=P:problem=znak segno na kresce
!	!LO:TX:a:t=[segno]
8F#\J 8D\	8dd\J 8a\
==:|!	==:|!
*-	*-
!!!system-decoration: [s1],[s2]
!!!ENC: Andrzej Borzym
!!!END: 2020-06-18
!!!ENC: Leszek Kubiak
!!!END: 2022-01-04
!!!YEC: Copyright 2022 Narodowy Instytut Fryderyka Chopina (https://polishscores.org)
!!!YEM: License CC-BY-4.0 (https://creativecommons.org/licenses/by/4.0)
